X: 1
T: Bury The Cabbage
M: 6/8
L: 1/8
R: jig
K: Amaj
B/c/d/|: ece edc | d2B B2c | dcd Bcd | c2A A2c :|
|: ece ea=g | f2d d2f | gfg efg |1 b2a a2c :|2 b2a a3||
